common/src/main/resources/icons/plugins/python/python/pythonClosed.svg

<!--
  - The MIT License (MIT)
  -
  - Copyright (c) 2015-2024 Elior "Mallowigi" Boukhobza
  -
  - Permission is hereby granted, free of charge, to any person obtaining a copy
  - of this software and associated documentation files (the "Software"), to deal
  - in the Software without restriction, including without limitation the rights
  - to use, copy, modify, merge, publish, distribute, sublicense, and/or sell
  - copies of the Software, and to permit persons to whom the Software is
  - furnished to do so, subject to the following conditions:
  -
  - The above copyright notice and this permission notice shall be included in all
  - copies or substantial portions of the Software.
  -
  - THE SOFTWARE IS PROVIDED "AS IS", WITHOUT WARRANTY OF ANY KIND, EXPRESS OR
  - IMPLIED, INCLUDING BUT NOT LIMITED TO THE WARRANTIES OF MERCHANTABILITY,
  - FITNESS FOR A PARTICULAR PURPOSE AND NONINFRINGEMENT. IN NO EVENT SHALL THE
  - AUTHORS OR COPYRIGHT HOLDERS BE LIABLE FOR ANY CLAIM, DAMAGES OR OTHER
  - LIABILITY, WHETHER IN AN ACTION OF CONTRACT, TORT OR OTHERWISE, ARISING FROM,
  - OUT OF OR IN CONNECTION WITH THE SOFTWARE OR THE USE OR OTHER DEALINGS IN THE
  - SOFTWARE.
  -->

<svg data-big="true" clip-rule="evenodd" fill-rule="evenodd" stroke-linejoin="round" stroke-miterlimit="1.4142" version="1.1"
     viewBox="0 0 24 24" width="16px" height="16px"
     xml:space="preserve" xmlns="http://www.w3.org/2000/svg">
    <path d="m10 4h-6c-1.11 0-2 .89-2 2v12c0 1.097.903 2 2 2h16c1.097 0 2-.903 2-2v-10c0-1.11-.9-2-2-2h-8l-2-2z"
          fill="#e57373" fill-rule="nonzero" style="fill:#FFCB6B"/>
  <g transform="matrix(.6453 0 0 .64533 9.5434 7.2458)">   <g>       <path
    d="m9.8594 2.0009c-1.58 0-2.8594 1.2794-2.8594 2.8594v1.6797h4.2891c.39 0 .71094.57094.71094.96094h-7.1406c-1.58 0-2.8594 1.2794-2.8594 2.8594v3.7812c0 1.58 1.2794 2.8594 2.8594 2.8594h1.1797v-2.6797c0-1.58 1.2716-2.8594 2.8516-2.8594h5.25c1.58 0 2.8594-1.2716 2.8594-2.8516v-3.75c0-1.58-1.2794-2.8594-2.8594-2.8594zm-.71875 1.6094c.4 0 .71875.12094.71875.71094s-.31875.89062-.71875.89062c-.39 0-.71094-.30062-.71094-.89062s.32094-.71094.71094-.71094z"
    style="fill:#3c78aa"/>
    <path
      d="m17.959 7v2.6797c0 1.58-1.2696 2.8594-2.8496 2.8594h-5.25c-1.58 0-2.8594 1.2696-2.8594 2.8496v3.75a2.86 2.86 0 0 0 2.8594 2.8613h4.2812a2.86 2.86 0 0 0 2.8594 -2.8613v-1.6797h-4.291c-.39 0-.70898-.56898-.70898-.95898h7.1406a2.86 2.86 0 0 0 2.8594 -2.8613v-3.7793a2.86 2.86 0 0 0 -2.8594 -2.8594zm-9.6387 4.5137-.0039.0039c.01198-.0024.02507-.0016.03711-.0039zm6.5391 7.2754c.39 0 .71094.30062.71094.89062a.71 .71 0 0 1 -.71094 .70898c-.4 0-.71875-.11898-.71875-.70898s.31875-.89062.71875-.89062z"
      style="fill:#3c78aa"/>   </g>
    </g>
</svg>

<svg xmlns="http://www.w3.org/2000/svg" xml:space="preserve" width="16" height="16" fill-rule="evenodd" stroke-linejoin="round" stroke-miterlimit="1.414" clip-rule="evenodd" data-big="true" viewBox="0 0 24 24"><path fill="#e57373" fill-rule="nonzero" d="M10 4H4c-1.11 0-2 .89-2 2v12c0 1.097.903 2 2 2h16c1.097 0 2-.903 2-2V8a2 2 0 0 0-2-2h-8z" style="fill:#ffcb6b"/><path d="M9.86 2C8.28 2 7 3.28 7 4.86v1.68h4.29c.39 0 .71.57.71.96H4.86C3.28 7.5 2 8.78 2 10.36v3.782C2 15.722 3.28 17 4.86 17h1.18v-2.68c0-1.58 1.27-2.86 2.85-2.86h5.25c1.58 0 2.86-1.27 2.86-2.85V4.86C17 3.28 15.72 2 14.14 2zm-.72 1.61c.4 0 .72.121.72.711s-.32.89-.72.89c-.39 0-.71-.3-.71-.89s.32-.71.71-.71" style="fill:#3c78aa" transform="matrix(.6453 0 0 .64533 9.543 7.246)"/><path d="M17.959 7v2.68a2.85 2.85 0 0 1-2.85 2.86H9.86A2.85 2.85 0 0 0 7 15.388v3.75A2.86 2.86 0 0 0 9.86 22h4.28A2.86 2.86 0 0 0 17 19.139v-1.68h-4.291c-.39 0-.709-.569-.709-.959h7.14A2.86 2.86 0 0 0 22 13.639v-3.78A2.86 2.86 0 0 0 19.14 7zM8.32 11.514l-.004.004q.018-.003.038-.004zm6.54 7.275c.39 0 .71.3.71.89a.71.71 0 0 1-.71.71c-.4 0-.72-.12-.72-.71s.32-.89.72-.89" style="fill:#3c78aa" transform="matrix(.6453 0 0 .64533 9.543 7.246)"/></svg>
